X: 1173
T: Polska efter Elias Johansson
R: Polska
Z: Håkan Lidén, 2009-02-08
O: Ramsele, Ångermanland
S: efter Elias Johansson
N: Upptecknad efter hemmansägaren Elias Johansson i Ramsele
N: [[http://www.smus.se/earkiv/fmk/browselarge.php?lang=sw&katalogid=Upprop+22&bildnr=00003|SMUS]]
M:3/4
L:1/8
K:Ddor
AB/^c/ d2 D2 | d>e f2 d2 | ab/a/ ga/g/ fg/f/ | ef/e/ d^c/d/ ed | 
AB/^c/ d2 D2 | d>e f2 d2 | ab/a/ ga/g/ fg/f/ | ef/e/ d2 z2 :|[K:D]
|: d>f ag eg | b>a (3faf d2 | de =fe dc | (3e^fe dc A2 |
d>f ag eg | b>a (3faf d2 | de =fe dc | (3e^fe d2 z2 :|]
(:musicend:)

(:music:)
